X: 1
T: Poul Peisen
R: S\onderhoning
Z: John Chambers <jc@trillian.mit.edu>
M: 3/4
L: 1/16
K: D
|: "D"A3d "A7"cdec "D"d2A2 \
| "D"f3f "A7"efge "D"f2d2 \
| "D"a3a "Em"g3g "D"f2f2 \
| "A7"efec "D"d2A2 F2A2 |
| "D"d3d "A7"cdec "D"d2A2 \
| "D"f3f "A7"efge "D"f2d2 \
| "D"a3a "Em"g3g "D"f2f2 \
| "A7"efec "D"d4- d4 :|
|: "A7"a3g "D"f2f2 f2f2 \
| "D"fagf f2ef "A7"e4 \
| "F#7"f3e "Bm"d2d2 d2d2 \
| "E7"e3d "A"c2Bc "A7"c2A2 |
| "D"d3d "A7"cdec "D"d2A2 \
| "D"f3f "A7"efge "D"f2d2 \
| "D"a3a "Em"g3g "D"f2f2 \
| "A7"efec "D"d4- d4 :|
